.local/share/icons/Gruvbox-Plus-Dark/actions/16/view-sort-ascending.svg

<svg xmlns="http://www.w3.org/2000/svg" width="16" height="16" viewBox="0 0 16 16">
 <defs>
  <style id="current-color-scheme" type="text/css">
   .ColorScheme-Text { color:#ebdbb2; } .ColorScheme-Highlight { color:#458588; }
  </style>
 </defs>
 <path style="fill:currentColor" class="ColorScheme-Text" d="M 2.5 2 C 1.67765 2 1 2.67765 1 3.5 C 1 4.32235 1.67765 5 2.5 5 C 3.32235 5 4 4.32235 4 3.5 C 4 2.67765 3.32235 2 2.5 2 z M 8 3 L 8 7 L 4.9375 7 L 10 14 L 15.1875 7 L 12 7 L 12 3 L 8 3 z M 2.5 6 C 1.67765 6 1 6.67765 1 7.5 C 1 8.32235 1.67765 9 2.5 9 C 3.32235 9 4 8.32235 4 7.5 C 4 6.67765 3.32235 6 2.5 6 z M 2.5 10 C 1.67765 10 1 10.67765 1 11.5 C 1 12.32235 1.67765 13 2.5 13 C 3.32235 13 4 12.32235 4 11.5 C 4 10.67765 3.32235 10 2.5 10 z"/>
</svg>

<svg width="16" height="16" version="1.1" xmlns="http://www.w3.org/2000/svg">
  <defs>
    <style id="current-color-scheme" type="text/css">.ColorScheme-Text { color:#ebdbb2; } .ColorScheme-Highlight { color:#458588; }</style>
  </defs>
  <path class="ColorScheme-Text" d="m2.5 2c-0.8224 0-1.5 0.6776-1.5 1.5s0.6776 1.5 1.5 1.5 1.5-0.6776 1.5-1.5-0.6776-1.5-1.5-1.5zm6.5 0v4h-3l4.5 7 4.5-7h-3v-4zm-6.5 4c-0.8224 0-1.5 0.6776-1.5 1.5s0.6776 1.5 1.5 1.5 1.5-0.6776 1.5-1.5-0.6776-1.5-1.5-1.5zm0 4c-0.8224 0-1.5 0.6776-1.5 1.5s0.6776 1.5 1.5 1.5 1.5-0.6776 1.5-1.5-0.6776-1.5-1.5-1.5z" fill="currentColor"/>
</svg>
